X:1
T:Opequon Church, LM
T:Opequon Church, LM
T:William Heavner, 2003
T:Author gives permission for use in worship. Publication and commercial rights reserved. Courtesy of the Cyber Hymnal™
C:William Heavner, 2003
Z:Author gives permission for use in worship. Publication and commercial rights reserved.
Z:Courtesy of the Cyber Hymnal™
%%score 1 2
L:1/8
Q:1/2=88
M:4/4
K:G
V:1 treble 
V:2 bass 
V:1
 [DB]4 [DA]3 [DG] | [B,D]4 [DG]4 | [DA]4 [DA]3 [DG] | [DB]4 [DG]4 | [DB]4 [DB]3 [Ec] | %5
 [Gd]4 [Dc]2 [EB]2 | [DA]8 | [DB]4 [DA]3 [DG] | [B,D]4 [DG]4 | [DA]4 [DA]3 [DG] | [DB]4 [DG]4 | %11
 [DB]4 [Dd]3 [Ec] | [DB]4 [DA]2 [CF]2 | [B,G]8 | [FA]4 [FA]3 [EA] | [DA]6 [Ac]2 | %16
 [GB]4 [GB]3 [GA] | [GB]8 | [Gd]4 [Bd]3 [cd] | [ce]4 [Bd]3 [GB] | [FA]8 | [DB]4 [DA]3 [DG] | %22
 [B,D]4 [DG]4 | [DA]4 [DA]3 [DG] | [DB]4 [DG]4 | [DB]4 [DB]3 [Gd] | [Fc]4 [GB]2 [FA]2 | [DG]8 |] %28
V:2
 [G,,G,]4 [G,,G,]3 [G,,A,] | [G,,G,]4 [B,,B,]4 | [A,,F,]4 [A,,F,]3 [A,,G,] | [G,,G,]4 [G,,D,]4 | %4
 [G,,G,]4 [G,,G,]3 [G,,A,] | [G,,G,]4 [A,,F,]2 [G,,G,]2 | [A,,F,]8 | [G,,G,]4 [G,,G,]3 [G,,A,] | %8
 [G,,G,]4 [B,,B,]4 | [A,,F,]4 [A,,F,]3 [A,,G,] | [G,,G,]4 [G,,D,]4 | [G,,G,]4 [G,,G,]3 [G,,A,] | %12
 [G,,G,]4 [G,,F,]2 [A,,A,]2 | [D,G,]8 | [D,A,]4 [D,F,]3 [D,G,] | [D,A,]6 [C,G,]2 | %16
 [E,B,]4 [E,B,]3 [E,A,] | [E,B,]8 | [G,D]4 [G,D]3 [G,D] | [G,D]4 [G,D]3 [G,D] | [D,D]8 | %21
 [G,,G,]4 [G,,G,]3 [G,,A,] | [G,,G,]4 [B,,B,]4 | [A,,F,]4 [A,,F,]3 [A,,G,] | [G,,G,]4 [G,,D,]4 | %25
 [G,,G,]4 [G,,G,]3 [B,,G,] | [D,A,]4 [D,G,]2 [C,A,]2 | [B,,G,]8 |] %28

